assets/imgs/Booking_2-2.svg

<svg width="58" height="58" viewBox="0 0 58 58" fill="none" xmlns="http://www.w3.org/2000/svg">
<rect x="0.98291" y="1.33325" width="55.9734" height="55.9734" rx="27.9867" stroke="#D1D5DB" stroke-width="0.79962"/>
<path d="M37.9992 15.7576H19.9398C17.7233 15.7576 15.9263 17.5546 15.9263 19.7711V38.8681C15.9263 41.0855 17.7233 42.8826 19.9398 42.8826H37.9983C40.2148 42.8826 42.0118 41.0855 42.0118 38.869V19.7711C42.0128 17.5546 40.2157 15.7576 37.9992 15.7576ZM24.5356 20.8793H33.4035C33.885 20.8793 34.2754 21.2698 34.2754 21.7512C34.2754 22.2327 33.885 22.6231 33.4035 22.6231H24.5356C24.0541 22.6231 23.6637 22.2327 23.6637 21.7512C23.6637 21.2698 24.0541 20.8793 24.5356 20.8793ZM29.5982 36.792H20.8921C20.4106 36.792 20.0202 36.4016 20.0202 35.9202C20.0202 35.4387 20.4106 35.0483 20.8921 35.0483H29.5982C30.0797 35.0483 30.4701 35.4387 30.4701 35.9202C30.4701 36.4016 30.0797 36.792 29.5982 36.792ZM29.5982 29.912H20.8921C20.4106 29.912 20.0202 29.5216 20.0202 29.0401C20.0202 28.5586 20.4106 28.1682 20.8921 28.1682H29.5982C30.0797 28.1682 30.4701 28.5586 30.4701 29.0401C30.4701 29.5216 30.0797 29.912 29.5982 29.912ZM37.5933 35.6305L35.1899 37.568C35.0349 37.693 34.8411 37.7608 34.6435 37.7608C34.6105 37.7608 34.5776 37.7589 34.5437 37.755C34.3122 37.7288 34.101 37.6106 33.9576 37.4266L33.0121 36.2214C32.7147 35.8417 32.7816 35.2943 33.1594 34.9969C33.5391 34.6986 34.0865 34.7654 34.3839 35.1442L34.784 35.6538L36.4996 34.2704C36.8745 33.9691 37.4228 34.0282 37.726 34.4031C38.0283 34.779 37.9692 35.3273 37.5933 35.6305ZM37.5933 28.7514L35.1899 30.6879C35.0349 30.8129 34.8411 30.8807 34.6435 30.8807C34.6105 30.8807 34.5776 30.8788 34.5437 30.8749C34.3122 30.8488 34.101 30.7306 33.9576 30.5465L33.0121 29.3414C32.7147 28.9616 32.7816 28.4143 33.1594 28.1169C33.5391 27.8185 34.0865 27.8853 34.3839 28.2641L34.784 28.7747L36.4996 27.3913C36.8745 27.09 37.4248 27.1501 37.726 27.524C38.0283 27.8999 37.9692 28.4492 37.5933 28.7514Z" fill="#C891C3"/>
</svg>

<svg xmlns="http://www.w3.org/2000/svg" width="58" height="58" fill="none"><rect width="55.973" height="55.973" x=".983" y="1.333" stroke="#D1D5DB" stroke-width=".8" rx="27.987"/><path fill="#C891C3" d="M38 15.758H19.94a4.014 4.014 0 0 0-4.014 4.013v19.097a4.014 4.014 0 0 0 4.014 4.015h18.058a4.014 4.014 0 0 0 4.014-4.014V19.771a4.01 4.01 0 0 0-4.013-4.013m-13.464 5.121h8.868a.872.872 0 0 1 0 1.744h-8.868a.872.872 0 0 1 0-1.744m5.062 15.913h-8.706a.872.872 0 0 1 0-1.744h8.706a.872.872 0 0 1 0 1.744m0-6.88h-8.706a.872.872 0 0 1 0-1.744h8.706a.872.872 0 0 1 0 1.744m7.995 5.718-2.403 1.938a.87.87 0 0 1-1.232-.141l-.946-1.206a.873.873 0 0 1 1.372-1.077l.4.51L36.5 34.27a.873.873 0 0 1 1.093 1.36m0-6.879-2.403 1.937a.87.87 0 0 1-1.232-.141l-.946-1.206a.873.873 0 0 1 1.372-1.077l.4.51 1.716-1.383a.873.873 0 0 1 1.094 1.36"/></svg>
